symbols/web/brightness_low/materialsymbolsrounded/brightness_low_wght600grad200fill1_24px.svg

<svg xmlns="http://www.w3.org/2000/svg" height="24" width="24"><path d="M8.35 20.65H6.425q-1.275 0-2.175-.9-.9-.9-.9-2.175V15.65l-1.45-1.5q-.875-.9-.875-2.15T1.9 9.85l1.45-1.5V6.4q0-1.275.9-2.175.9-.9 2.175-.9H8.35l1.5-1.45Q10.75 1 12 1t2.15.875l1.5 1.45h1.95q1.275 0 2.175.9.9.9.9 2.175v1.95l1.45 1.5Q23 10.75 23 12t-.875 2.15l-1.45 1.5v1.925q0 1.275-.9 2.175-.9.9-2.175.9h-1.95l-1.5 1.45q-.9.875-2.15.875T9.85 22.1ZM12 17.025q-2.1 0-3.562-1.463Q6.975 14.1 6.975 12q0-2.1 1.463-3.563Q9.9 6.975 12 6.975q2.1 0 3.563 1.462Q17.025 9.9 17.025 12t-1.462 3.562Q14.1 17.025 12 17.025Zm0-2.75q.95 0 1.613-.663.662-.662.662-1.612 0-.95-.662-1.613-.663-.662-1.613-.662t-1.612.662q-.663.663-.663 1.613t.663 1.612q.662.663 1.612.663Zm0 5.625 2.325-2.3H17.6v-3.275L19.925 12 17.6 9.675V6.4h-3.275L12 4.075 9.675 6.4H6.4v3.275L4.1 12l2.325 2.325v3.25h3.25Zm0-5.625q-.95 0-1.612-.663-.663-.662-.663-1.612 0-.95.663-1.613.662-.662 1.612-.662.95 0 1.613.662.662.663.662 1.613t-.662 1.612q-.663.663-1.613.663Z"/></svg>

<svg xmlns="http://www.w3.org/2000/svg" height="24" width="24"><path d="M8.35 20.65H6.425Q5.15 20.65 4.25 19.75Q3.35 18.85 3.35 17.575V15.65L1.9 14.15Q1.025 13.25 1.025 12Q1.025 10.75 1.9 9.85L3.35 8.35V6.4Q3.35 5.125 4.25 4.225Q5.15 3.325 6.425 3.325H8.35L9.85 1.875Q10.75 1 12 1Q13.25 1 14.15 1.875L15.65 3.325H17.6Q18.875 3.325 19.775 4.225Q20.675 5.125 20.675 6.4V8.35L22.125 9.85Q23 10.75 23 12Q23 13.25 22.125 14.15L20.675 15.65V17.575Q20.675 18.85 19.775 19.75Q18.875 20.65 17.6 20.65H15.65L14.15 22.1Q13.25 22.975 12 22.975Q10.75 22.975 9.85 22.1ZM12 17.025Q9.9 17.025 8.438 15.562Q6.975 14.1 6.975 12Q6.975 9.9 8.438 8.437Q9.9 6.975 12 6.975Q14.1 6.975 15.563 8.437Q17.025 9.9 17.025 12Q17.025 14.1 15.563 15.562Q14.1 17.025 12 17.025ZM12 14.275Q12.95 14.275 13.613 13.612Q14.275 12.95 14.275 12Q14.275 11.05 13.613 10.387Q12.95 9.725 12 9.725Q11.05 9.725 10.388 10.387Q9.725 11.05 9.725 12Q9.725 12.95 10.388 13.612Q11.05 14.275 12 14.275ZM12 19.9 14.325 17.6H17.6V14.325L19.925 12L17.6 9.675V6.4H14.325L12 4.075L9.675 6.4H6.4V9.675L4.1 12L6.425 14.325V17.575H9.675ZM12 14.275Q11.05 14.275 10.388 13.612Q9.725 12.95 9.725 12Q9.725 11.05 10.388 10.387Q11.05 9.725 12 9.725Q12.95 9.725 13.613 10.387Q14.275 11.05 14.275 12Q14.275 12.95 13.613 13.612Q12.95 14.275 12 14.275Z"/></svg>
